other/cloud-security.svg

<svg viewBox="0 0 192 164" xmlns="http://www.w3.org/2000/svg" data-bind="sanitizedAttr: { 'aria-label': svgText }" class="ext-icon" aria-label="Azure security center"><path d="M52.17 9.17c6.98-6.67 17.47-9.64 26.86-7.2 6.74 1.74 11.78 7.4 14.34 13.69 1.99 4.34 2.31 9.16 3.2 13.79 4.68 1.04 9.03 3.23 12.19 6.9-5.16 4.96-11.99 7.95-19 9.12-5.41.95-10.92.04-16.35.74-.27 2.56-.47 5.13-.49 7.71-8.97.31-17.95-.1-26.92.09-4.2-.04-8.47.4-12.6-.53-8.68-2.78-14.88-12.53-12.57-21.58 1.04-6.16 5.75-11.48 11.76-13.19 4.17-1.21 8.67-.07 12.82-1.27 2.45-2.59 4.14-5.83 6.76-8.27z" fill="#c7e7ee"/><path d="M108.76 36.35c1.85-1.87 3.56-3.89 5.35-5.82 3.22 1.77 5.14 5.13 8.11 7.25 5.68 4.67 12.87 6.74 19.94 8.24-5.49 8.17-11.5 15.96-17.21 23.97-3.02-2.52-6.85-4.56-10.92-3.92-4.82.4-8.94 4.1-10.27 8.69-1.45 4.34-.23 9.05-1.39 13.4-1.55 1.26-3.26 2.31-4.91 3.42-.87 6.06-.21 12.19-.65 18.28-4.26 4.09-7.89 8.83-10.4 14.18-2.86-5.27-7.59-9.27-13.1-11.55-.8-19.5-.07-39.05-.39-58.57.02-2.58.22-5.15.49-7.71 5.43-.7 10.94.21 16.35-.74 7.01-1.17 13.84-4.16 19-9.12z" fill="#95c515"/><path d="M142.16 46.02c4.25.04 8.5-.3 12.75-.23 2.12.07 2.06 2.65 2.11 4.17.04 10.84 0 21.67.02 32.51-3.58 1.41-6.96 4.47-6.79 8.62-.18 4.22 3.54 6.9 6.64 9.03.32 6.36.72 13.29-2.77 18.94-7.86 12.51-19.7 22.05-32.64 28.93-1.39-.54-2.81-.95-4.23-1.36-.91-6.65-.5-14.87-6.54-19.31-6.65-4.64-14.95-1.95-21.78.75-.84-1.34-1.68-2.69-2.52-4.03 2.51-5.35 6.14-10.09 10.4-14.18.62 2.16 1.54 5.06 4.3 4.99 9.3.34 18.64.15 27.95.1 2.41.21 4.75-1.56 4.69-4.09.31-5.6.22-11.23.07-16.83.29-3.28-3.31-4.39-5.6-5.68-.31-6.22.24-12.85-3.27-18.36 5.71-8.01 11.72-15.8 17.21-23.97z" fill="#7fba00"/><path d="M103.76 74.76c1.33-4.59 5.45-8.29 10.27-8.69 4.07-.64 7.9 1.4 10.92 3.92 3.51 5.51 2.96 12.14 3.27 18.36 2.29 1.29 5.89 2.4 5.6 5.68.15 5.6.24 11.23-.07 16.83.06 2.53-2.28 4.3-4.69 4.09-9.31.05-18.65.24-27.95-.1-2.76.07-3.68-2.83-4.3-4.99.44-6.09-.22-12.22.65-18.28 1.65-1.11 3.36-2.16 4.91-3.42 1.16-4.35-.06-9.06 1.39-13.4z" fill="#fff"/><path d="M110.57 76.6c1.52-4.51 9.08-3.87 10.03.72.82 3.82.36 7.77.36 11.64-3.63.12-7.27.12-10.9-.03 0-4.1-.55-8.32.51-12.33z" fill="#95c515"/><path d="M161.47 81.51c2.61-2.05 4.12-5.75 7.69-6.34 4.13-.86 9.02-.67 12.2 2.46 3.27 2.83 3.16 7.77 6.24 10.76 1.33 1.66 3.54 3.19 3.22 5.6-.39 2.88-2.43 6.33-5.79 5.89-9.38.16-18.76-.13-28.14.24-3.1-2.13-6.82-4.81-6.64-9.03-.17-4.15 3.21-7.21 6.79-8.62 1.46-.37 2.97-.57 4.43-.96zM73.31 112.49c5.51 2.28 10.24 6.28 13.1 11.55.84 1.34 1.68 2.69 2.52 4.03 6.83-2.7 15.13-5.39 21.78-.75 6.04 4.44 5.63 12.66 6.54 19.31 1.42.41 2.84.82 4.23 1.36 5.35 3.76 1.64 15.18-5.42 14-34.7-.05-69.4-.09-104.1.02-2.44-.11-5.24-.04-7.13-1.86-2.85-2.77-4.05-7.04-3.57-10.94.87-4.28 4.19-8.3 8.58-9.21 2.21-.54 4.49-.74 6.67-1.44 2.49-2.54 3.91-6.09 7.05-8 3.6-2.24 8.09-3.74 12.33-2.58 3.12.87 5.96 2.48 8.92 3.77 1.66-4.91 2.99-10.32 7.1-13.83 5.72-5.32 14.1-5.12 21.4-5.43z" fill="#c7e7ee"/></svg>

<svg viewBox="0 0 192 164" xmlns="http://www.w3.org/2000/svg" data-bind="sanitizedAttr: { 'aria-label': svgText }" class="ext-icon" role="img" aria-label="Azure security center"> <path d="M 52.17 9.17 C 59.15 2.50 69.64 -0.47 79.03 1.97 C 85.77 3.71 90.81 9.37 93.37 15.66 C 95.36 20.00 95.68 24.82 96.57 29.45 C 101.25 30.49 105.60 32.68 108.76 36.35 C 103.60 41.31 96.77 44.30 89.76 45.47 C 84.35 46.42 78.84 45.51 73.41 46.21 C 73.14 48.77 72.94 51.34 72.92 53.92 C 63.95 54.23 54.97 53.82 46.00 54.01 C 41.80 53.97 37.53 54.41 33.40 53.48 C 24.72 50.70 18.52 40.95 20.83 31.90 C 21.87 25.74 26.58 20.42 32.59 18.71 C 36.76 17.50 41.26 18.64 45.41 17.44 C 47.86 14.85 49.55 11.61 52.17 9.17 Z" fill="#c7e7ee"></path> <path d="M 108.76 36.35 C 110.61 34.48 112.32 32.46 114.11 30.53 C 117.33 32.30 119.25 35.66 122.22 37.78 C 127.90 42.45 135.09 44.52 142.16 46.02 C 136.67 54.19 130.66 61.98 124.95 69.99 C 121.93 67.47 118.10 65.43 114.03 66.07 C 109.21 66.47 105.09 70.17 103.76 74.76 C 102.31 79.10 103.53 83.81 102.37 88.16 C 100.82 89.42 99.11 90.47 97.46 91.58 C 96.59 97.64 97.25 103.77 96.81 109.86 C 92.55 113.95 88.92 118.69 86.41 124.04 C 83.55 118.77 78.82 114.77 73.31 112.49 C 72.51 92.99 73.24 73.44 72.92 53.92 C 72.94 51.34 73.14 48.77 73.41 46.21 C 78.84 45.51 84.35 46.42 89.76 45.47 C 96.77 44.30 103.60 41.31 108.76 36.35 Z" fill="#95c515"></path> <path d="M 142.16 46.02 C 146.41 46.06 150.66 45.72 154.91 45.79 C 157.03 45.86 156.97 48.44 157.02 49.96 C 157.06 60.80 157.02 71.63 157.04 82.47 C 153.46 83.88 150.08 86.94 150.25 91.09 C 150.07 95.31 153.79 97.99 156.89 100.12 C 157.21 106.48 157.61 113.41 154.12 119.06 C 146.26 131.57 134.42 141.11 121.48 147.99 C 120.09 147.45 118.67 147.04 117.25 146.63 C 116.34 139.98 116.75 131.76 110.71 127.32 C 104.06 122.68 95.76 125.37 88.93 128.07 C 88.09 126.73 87.25 125.38 86.41 124.04 C 88.92 118.69 92.55 113.95 96.81 109.86 C 97.43 112.02 98.35 114.92 101.11 114.85 C 110.41 115.19 119.75 115.00 129.06 114.95 C 131.47 115.16 133.81 113.39 133.75 110.86 C 134.06 105.26 133.97 99.63 133.82 94.03 C 134.11 90.75 130.51 89.64 128.22 88.35 C 127.91 82.13 128.46 75.50 124.95 69.99 C 130.66 61.98 136.67 54.19 142.16 46.02 Z" fill="#7fba00"></path> <path d="M 103.76 74.76 C 105.09 70.17 109.21 66.47 114.03 66.07 C 118.10 65.43 121.93 67.47 124.95 69.99 C 128.46 75.50 127.91 82.13 128.22 88.35 C 130.51 89.64 134.11 90.75 133.82 94.03 C 133.97 99.63 134.06 105.26 133.75 110.86 C 133.81 113.39 131.47 115.16 129.06 114.95 C 119.75 115.00 110.41 115.19 101.11 114.85 C 98.35 114.92 97.43 112.02 96.81 109.86 C 97.25 103.77 96.59 97.64 97.46 91.58 C 99.11 90.47 100.82 89.42 102.37 88.16 C 103.53 83.81 102.31 79.10 103.76 74.76 Z" fill="#ffffff"></path> <path d="M 110.57 76.60 C 112.09 72.09 119.65 72.73 120.60 77.32 C 121.42 81.14 120.96 85.09 120.96 88.96 C 117.33 89.08 113.69 89.08 110.06 88.93 C 110.06 84.83 109.51 80.61 110.57 76.60 Z" fill="#95c515"></path> <path d="M 161.47 81.51 C 164.08 79.46 165.59 75.76 169.16 75.17 C 173.29 74.31 178.18 74.50 181.36 77.63 C 184.63 80.46 184.52 85.40 187.60 88.39 C 188.93 90.05 191.14 91.58 190.82 93.99 C 190.43 96.87 188.39 100.32 185.03 99.88 C 175.65 100.04 166.27 99.75 156.89 100.12 C 153.79 97.99 150.07 95.31 150.25 91.09 C 150.08 86.94 153.46 83.88 157.04 82.47 C 158.50 82.10 160.01 81.90 161.47 81.51 Z" fill="#c7e7ee"></path> <path d="M 73.31 112.49 C 78.82 114.77 83.55 118.77 86.41 124.04 C 87.25 125.38 88.09 126.73 88.93 128.07 C 95.76 125.37 104.06 122.68 110.71 127.32 C 116.75 131.76 116.34 139.98 117.25 146.63 C 118.67 147.04 120.09 147.45 121.48 147.99 C 126.83 151.75 123.12 163.17 116.06 161.99 C 81.36 161.94 46.66 161.90 11.96 162.01 C 9.52 161.90 6.72 161.97 4.83 160.15 C 1.98 157.38 0.78 153.11 1.26 149.21 C 2.13 144.93 5.45 140.91 9.84 140.00 C 12.05 139.46 14.33 139.26 16.51 138.56 C 19.00 136.02 20.42 132.47 23.56 130.56 C 27.16 128.32 31.65 126.82 35.89 127.98 C 39.01 128.85 41.85 130.46 44.81 131.75 C 46.47 126.84 47.80 121.43 51.91 117.92 C 57.63 112.60 66.01 112.80 73.31 112.49 Z" fill="#c7e7ee"></path> </svg>
